X:1
T:Vrai dieu, disoit
T:Vrai dieu, disoit
T:Orlande de Lassus
C:Orlande de Lassus
%%score [ 1 2 [ 3 4 ] ]
L:1/8
Q:1/4=80
M:2/2
K:F
V:1 treble nm="Superius" snm="S"
V:2 treble nm="Altus" snm="A"
V:3 treble-8 nm="Tenor 1" snm="T 1"
V:4 treble-8 nm="Tenor 2" snm="T 2"
V:1
 z4 c2 cB | AAcd c2 c2 | F2 FG AA c2- | c2 c2 d2 c2 | z4 c2 cB | A2 f2 fe d2- | d2 B2 c2 d2- | %7
w: Vrai dieu, di-|soit u- ne fil- let- te,|vrai dieu, di- soit u- ne|_ fil- let- te,|vrai dieu, di-|soit, vrai dieu, di- soit|_ u- ne fil-|
"^-natural" dc c4 B2 | c4 z4 | z4 z2 c2 | c2 c2 d3 d | =B2 c2 c4 | z2 c2 d2 d2 | f3 c d2 c2 | %14
w: * * let- *|te,|don-|nez con- fort à|mon grief mal,|je ne puis|plus dor- mir seul-|
 B4 A4 | z4 z2 c2 | d2 e2 f2 f2 | e2 f2 d2 c2 | z2 F2 G2 A2 | B4 A4 | c4 c2 d2 | B2 G2 A2 G2- | %22
w: let- te,|je|ne puis plus dor-|mir seul- let- te,|dor- mir seul-|let- te,|je sent trop|bien quil me faict-|
 GF F4 E2 | F4 z4 | c2 BA c2 A2 | B2 c2 d2 z B | AA c2 z cdd | d2 A2 d2 c2 | c4 z4 | z4 z2 c2- | %30
w: |mal,|le sou- ve- nir de|mes a- mours, sans|plus tar- der, sans plus tar-|der vol- droit sca-|voir,|que|
 c c2 B AcBG | A2 c2 c2 B2 | A2 c2 F2 B2 | A4 z2 c2 | e2 f2 c3 d | e2 A2 A4- | A2 d2 c2 B2 | %37
w: _ cho- s'est ce quon dit tous-|jours, bai- ser nest|riens sans plus a-|voir, bai-|ser nest riens sans|plus a- voir,|_ bai- ser nest|
 A2 A2 BA GF | E2 F4 E2 | F8- | F8- | F8 |] %42
w: riens sans plus _ _ _|_ _ a-|voir.|_||
V:2
 F2 FG AFED | F2 F2 A2 AG | A2 A2 FF A2- | A2 GG BB A2 | G2 G2 AAAG | FG A2 F2 B2 | BAGG AA A2 | %7
w: Vrai dieu, di- soit u- ne fil-|let- te, vrai dieu, di-|soit u- ne fil- let-|* te, u- ne fil- let-|te, vrai dieu, di- soit u-|ne fil- let- te, vrai|dieu, di- soit u- ne fil- let-|
 G4 z2 G2 | G2 G2 A2 G2 | B2 A2 G3 G | A2 A2 B2 A2 | G4 A4 | G2 G2 B3 B | B2 A2 BG A2- | A2 G2 A4 | %15
w: te, don-|nez con- fort à|mon grief mal, don-|nez con- fort à|mon grief|mal, je ne puis|plus dor- seul- let- *|* * te,|
 z4 z2 A2 | A2 G2 F2 D2 | G2 A2 B2 A2 | F2 B4 A2 | G4 ^F4 | G4 A2 A2 | GF DE F2 _E2 | %22
w: je|ne puis plus dor-|mir seul- let- te,|dor- mir seul-|let- te,|je sent trop|bien _ _ _ _ quil|
 D2 CB, C2 C2 | A,4 z4 | z4 G2 FE | G2 A2 B2 F2 | FFAA GGBB | A2 F2 B2 G2 | A2 z A2 G2 F | %29
w: me _ _ _ faict|mal,|le sou- ve-|nir de mes a-|mours, sans plus tar- der, sans plus tar-|der vol- droit sca-|voir, que cho- s'est|
 EGFD E2 G2 | A2 G F2 CDE | F2 A4 F2- | F2 E2 D4 | F4 G2 A2 | G A2 F A4 | G2 F2 E2 E2 | %36
w: ce quon dit tous- jours, que|cho- s'est ce quon dit tous-|jours, bai- ser|_ nest riens,|bai- ser nest|riens, bai- ser nest|riens sans aul- tre'a-|
 F2 A3 A G2 | F2 F3 E D2 | C2 B,2 C2 C2- | CC A,2 C2 D2 | C4 D4 | C8 |] %42
w: voir, sans aul- tre'a-|voir, sans _ _|aul- tre'a- voir, bai-|* ser nest riens sans|aul- tre'a-|voir.|
V:3
 z8 | z4 f2 fe | d2 d2 cc f2 | e4 f2 ff | e3 d ee f2 | c2 z d deff | g2 d2 f2 ff | e2 e2 d4 | %8
w: |Vrai dieu, di-|soit u- ne fil- let-|te, vrai dieu, di-|soit u- ne fil- let-|te, vrai dieu, di- soit u-|ne fil- let- te, u-|ne fil- let-|
 c2 e2 e2 e2 | f3 f d2 e2 | f3 f f2 f2 | d2 e3 e f2- | f2 e2 z4 | z4 z2 c2 | d2 e2 f2 f2 | %15
w: te, don- nez con-|fort à mon grief|mal, don- nez con-|fort à mon grief|_ mal,|je|ne puis plus dor-|
 ec de f2 e2 | dc c4 B2 | c4 g2 ef | d3 c d2 d2 | d4 d4 | e4 f2 f2 | d2 B2 c3 B | A2 GF G2 G2 | %23
w: mir _ _ _ _ seul-|let- * * *|te, je ne puis|plus dor- mir seul-|let- te,|je sent trop|bien quil me _|_ _ _ _ faict|
 F4 f2 ed | fedf e2 c2 | ddff B2 d2 | ccff e2 g2 | ffda g f2 e | f2 f2 e2 dc- | cGAB c2 e2 | %30
w: mal, le sou- ve-|nir de mes a- mours, le|sou- ve- nir de mes a-|mours, sans plus tar- der, sans|plus tar- der vol- droit sca- *|voir, que cho- s'est ce|_ quon dit tous- jours, que|
 f2 _e d2 ABc | F2 f3 f d2 | c4 z4 | z2 c2 e2 f2 | cc d2 f2 e2 | z2 d3 d ^c2 | d2 f3 f d2 | %37
w: cho- s'est ce quon dit tous-|jours, bai- ser nest|riens,|bai- ser nest|riens, bai- ser nest riens|bai- ser nest|riens, bai- ser nest|
 d2 d3 c BA | G2 F2 G4 | F2 c2 F2 B2- | B2 A3 FBB | A8 |] %42
w: riens sans- _ _ _|_ aul- tre'a-|voir, bai- ser nest|_ riens sans aul- tre'a-|voir.|
V:4
 z8 | z8 | z4 F2 FG | AAcc B2 F2 | c2 cB A2 F2 | FE D2 B2 BA | G2 G2 F2 D2 | E3 F G4 | %8
w: ||Vrai dieu, di-|soit u- ne fil- let- te,|vrai dieu, di- soit vrai-|dieu di- soit,- vrai dieu, di-|soit u- ne fil-|let- * *|
 C2 c2 c2 c2 | d3 d =B2 c2 | F2 F2 B2 d2 | G2 c2 A2 F2 | c4 z4 | z8 | z4 z2 d2 | c2 B2 A3 G | %16
w: te, don- nez con-|fort à mon grief|mal, don- nez con-|fort à mon grief|mal,||je|ne puis plus dor-|
 F2 E2 D4 | C2 F2 G2 A2 | B3 A G2 ^F2 | G4 D4 | C4 F2 D2 | G4 F2 C2 | D4 C4 | z2 c2 BAcB | %24
w: mir seul- let-|te, je ne puis|plus dor- mir seul-|let- te,|je sent trop|bien quil me|faict mal,|le sou- ve- nir de|
 AcGd ccFA | GG F2 z BBB | F2 z F cc G2 | d4 B2 c2 | F2 F2 c2 BA- | AEFG C4 | z8 | z2 F2 A2 B2 | %32
w: mes a- mours, le sou- ve- nir de|mes a- mours, sans plus tar-|der, sans plus tar- der|vol- droit sca-|voir, que cho- s'est ce|_ quon dit tous- jours||bai- ser nest|
 F2 A2 B2 G2 | F4 z4 | z4 z2 A2 | c2 d2 A4 | z2 D2 F2 G2 | D4 B,4 | C2 D2 C4 | z2 F2 A2 B2 | %40
w: riens sans aul- tre'a-|voir,|bai-|ser nest riens|bai- ser nest|riens sans|aul- tre'a- voir,|bai- ser nest|
 F2 F2 D2 B,2 | F8 |] %42
w: riens sans aul- tre'a-|voir.|

